X: 10322
M: C
L: 1/8
K: C
e/f/ |!p!\
g<cTg>e g<cTg>e | g<cg>e adde/f/ |\
g<cg>e g<cg>e | f<aTg>f ecc :|\
|: e |!f!\
a>fg>e f>de>c | f<aTg>f ecc |]


